X:1
T:Why do we mourn departing friends?
T:Why do we mourn departing friends? - Malton (Thomas Clark)
C:Thomas Clark
Z:Text: Isaac Watts
%%score [ 1 2 3 4 ]
L:1/8
M:4/4
K:C
V:1 treble nm="Air" snm="S."
V:2 treble nm="[Alto]" snm="A."
V:3 treble-8 transpose=-12 nm="Tenor" snm="T."
V:4 bass nm="[Bass]" snm="B."
V:1
 e4 d2 c2 | B6 c2 | B4 A4 | ^G4 z4 | z2 e2 e2 d2 | c6 d2 | c4 B4 | A6 B2 | c4 e4 | %9
w: Thence he a-|rose, as-|cend- ing|high,|thence he a-|rose, as-|cend- ing|high, And|showed our|
w: Why do we|mourn de-|part- ing|friends?|why do we|mourn de-|part- ing|friends, Or|shake at|
w: The graves of|all his|saints he|blest,|the graves of|all his|saints he|blest, And|sof- ten’d|
 (d2 c2) (B2 A2) | e8 |: B4 B2 B2 | c6 e2 | d4 B4 | c8 | d4 d2 d2 | e6 e2 | (d2 c2) (B2 A2) | %18
w: feet _ the _|way;|Up to the|Lord our|flesh shall|fly,|up to the|Lord our|flesh _ shall _|
w: death’s _ a- *|larms?|’Tis but the|voice that|Je- sus|sends,|’tis but the|voice that|Je- * sus _|
w: ev- * ’ry _|bed:|Where should the|dy- ing|mem- bers|rest,|where should the|dy- ing|mem- * bers _|
 ^G2 E2 A2 B2 | (c2 Bc d2) c2 | !fermata!B6 c2 | (de f2) (e2 d2) | c4 B4 | A8 :| %24
w: fly At the great|ris- * * * ing|day, at|the _ _ great _|ris- ing|day.|
w: sends To call them|to _ _ _ his|arms, to|call _ _ them _|to his|arms.|
w: rest, But with their|dy- * * * ing|Head, but|with _ _ their _|dy- ing|Head?|
V:2
 z8 | z8 | z8 | E4 E2 F2 | G4 E4 | (E6 F2 | E4) E4 | E6 E2 | E4 E4 | A4 A4 | ^G8 |: E4 E2 E2 | %12
w: |||Thence he a-|rose, as-|cend- *|* ing|high, And|showed our|feet the|way;|Up to the|
w: |||Why do we|mourn de-|part- *|* ing|friends, Or|shake at|death’s a-|larms?|’Tis but the|
w: |||The graves of|all his|saints _|_ he|blest, And|sof- ten’d|ev- ’ry|bed:|Where should the|
 E6 G2 | F4 D4 | E8 | G4 G2 G2 | G6 A2 | A4 F4 | E4 z2 E2 | E2 E2 F2 E2 | !fermata!E6 E2 | %21
w: Lord our|flesh shall|fly,|up to the|Lord our|flesh shall|fly At|the great ris- ing|day, at|
w: voice that|Je- sus|sends,|’tis but the|voice that|Je- sus|sends To|call them to his|arms, to|
w: dy- ing|mem- bers|rest,|where should the|dy- ing|mem- bers|rest, But|with their dy- ing|Head, but|
 F4 (A2 F2) | E4 E4 | E8 :| %24
w: the great _|ris- ing|day.|
w: call them _|to his|arms.|
w: with their _|dy- ing|Head?|
V:3
 z8 | z8 | d4 d2 c2 | B4 (c2 d2) | e4 (c2 B2) | A6 B2 | A4 ^G4 | A6 ^G2 | A4 c4 | e4 d4 | B8 |: %11
w: ||Thence he a-|rose, as- *|cend- ing _|high, as-|cend- ing|high, And|showed our|feet the|way;|
w: ||Why do we|mourn de- *|part- ing _|friends, de-|part- ing|friends, Or|shake at|death’s a-|larms?|
w: ||The graves of|all his _|saints he _|blest, his|saints he|blest, And|sof- ten’d|ev- ’ry|bed:|
 ^G4 G2 G2 | (A3 B c2) c2 | A4 G4 | G8 | B4 B2 B2 | c6 c2 | (f2 e2) (d2 c2) | B2 B2 A2 ^G2 | %19
w: Up to the|Lord _ _ our|flesh shall|fly,|up to the|Lord our|flesh _ shall _|fly At the great|
w: ’Tis but the|voice _ _ that|Je- sus|sends,|’tis but the|voice that|Je- * sus _|sends To call them|
w: Where should the|dy- * * ing|mem- bers|rest,|where should the|dy- ing|mem- * bers _|rest But with their|
 (Acdc B2) A2 | !fermata!^G6 A2 | (A2 B2) (c2 B2) | A4 ^G4 | A8 :| %24
w: ris- * * * * ing|day, at|the _ great _|ris- ing|day.|
w: to _ _ _ _ his|arms, to|call _ them _|to his|arms.|
w: dy- * * * * ing|Head, but|with _ their _|dy- ing|Head?|
V:4
 A,4"^´43" B,2 A,2 |"^6" ^G,6 A,2 |"^6" D,4"^8""^7" D,4 |"^#" E,2 E,2"^6" E,2"^6" D,2 | %4
w: Thence he a-|rose, as-|cend- ing|high, thence he a-|
w: Why do we|mourn de-|part- ing|friends, why do we|
w: The graves of|all his|saints he|blest, the graves of|
 C,4"^6""^5" E,4 | (A,6"^6" D,2 |"^64" E,4)"^5#" E,4 | A,,6"^#" E,2 | A,4 A,4 |"^7" F,4"^6" F,4 | %10
w: rose, as-|cend- *|* ing|high, And|showed our|feet the|
w: mourn de-|part- *|* ing|friends, Or|shake at|death’s a-|
w: all his|saints _|_ he|blest, And|sof- ten’d|ev- ’ry|
"^#" E,8 |:"^#" E,4 E,2 E,2 | A,6"^6" E,2 |"^6" F,4 G,4 | C,8 | G,4 G,2 G,2 | C6"^6" C,2 | %17
w: way;|Up to the|Lord our|flesh shall|fly,|up to the|Lord our|
w: larms?|Tis but the|voice that|Je- sus|sends,|’tis but the|voice that|
w: bed:|Where should the|dy- ing|mem- bers|rest,|where should the|dy- ing|
"^8""^7" D,4"^8""^7" D,4 |"^#" E,4 z2"^#" E,2 | %19
w: flesh shall|fly At|
w: Je- sus|sends To|
w: mem- bers|rest, But|
"^The order of staves in the source is Tenor - [Alto] - Air - [Bass], with the alto part notated in the treble clef an octavehigher than in the present edition. The first verse only of the text is given in the source: a selection of subsequentverses have been underlaid editorially." A,2 A,2"^6" D,2 A,,2 | %20
w: the great ris- ing|
w: call them to his|
w: with their dy- ing|
"^#" !fermata!E,6 A,2 |"^5""^6" D,4"^6" (C,2"^6" D,2) |"^64" E,4"^5#" E,4 | A,,8 :| %24
w: day, at|the great _|ris- ing|day.|
w: arms, to|call them _|to his|arms.|
w: Head, but|with their _|dy- ing|Head?|

